X:1819
T:Bruramarsj fr\aa Kall
T:Bridal march from Kall
C:anon.
O:Norway
A:Kall
R:Bridal march, wedding march
Z:Transcribed by Frank Nordberg - http://www.musicaviva.com
F:http://abc.musicaviva.com/tunes/norway/buramarsj-fraa-kall/buramarsj-fraa-kall-1.abc
M:2/4
L:1/8
Q:1/4=120
K:D
uA2|:"D"vd2 d3/d/|"D"de fd|"A"e2 e>e|"A"ef ge|"D"f2 f>f|"D"fe/f/ gf|
"A"f>e ee|"A"ea ge|"D"vd2 d>d|"D"de fd|"A"e2 e>e|"A"ef ge|"D"fa fd|
"A"eg ec|"D"d2 "A"c/A/c/e/|[1"D"d3uA:|[2"D"d3uf|:"D"va2 a>a|"D"a^g/a/ ba|"A"v=g2 g>g|
"A"gf/g/ ag|v"D"f2 f>f|"D"fe/f/ gf|"A"f>e ee|"A"ea ge|"D"a2 a>a|"D"a^g/a/ ba|
"A"=g2 g>g|"A"gf/g/ ag|"D"fa fd|"A"eg ec|"D"d2 "A"c/A/c/e/|[1"D"d3uf:|[2"D"d2|]
W:
W:
W:  From Musica Viva - http://www.musicaviva.com
W:  the Internet center for free sheet music downloads.
